src/images/tech-logos/npm.svg

<svg height="210" viewBox="0 0 18 7" width="540" xmlns="http://www.w3.org/2000/svg"><path d="m0 0h18v6h-9v1h-4v-1h-5zm1 5h2v-3h1v3h1v-4h-4zm5-4v5h2v-1h2v-4zm2 1h1v2h-1zm3-1v4h2v-3h1v3h1v-3h1v3h1v-4z" fill="#cb3837"/><g fill="#fff"><path d="m1 5h2v-3h1v3h1v-4h-4z"/><path d="m6 1v5h2v-1h2v-4zm3 3h-1v-2h1z"/><path d="m11 1v4h2v-3h1v3h1v-3h1v3h1v-4z"/></g></svg>

<?xml version="1.0" encoding="utf-8"?>
<!DOCTYPE svg PUBLIC "-//W3C//DTD SVG 1.1//EN" "http://www.w3.org/Graphics/SVG/1.1/DTD/svg11.dtd">
<svg version="1.1" xmlns="http://www.w3.org/2000/svg" x="0px" y="0px" width="540px" height="210px" viewBox="0 0 18 7">
<path fill="#CB3837" d="M0,0h18v6H9v1H5V6H0V0z M1,5h2V2h1v3h1V1H1V5z M6,1v5h2V5h2V1H6z M8,2h1v2H8V2z M11,1v4h2V2h1v3h1V2h1v3h1V1H11z"/>
<polygon fill="#FFFFFF" points="1,5 3,5 3,2 4,2 4,5 5,5 5,1 1,1 "/>
<path fill="#FFFFFF" d="M6,1v5h2V5h2V1H6z M9,4H8V2h1V4z"/>
<polygon fill="#FFFFFF" points="11,1 11,5 13,5 13,2 14,2 14,5 15,5 15,2 16,2 16,5 17,5 17,1 "/>
</svg>
